X:25
T: Emerald Room (The)
S: Colm Gannon
Z: B.Black
R: reel
M: 4/4
L: 1/8
K: D
A | dA A2 BAGF | GABd cABc | dfed cABc |\
dfec d3 A |
dA A2 BAGF | GABd cABc | dfed cABc | dfec d3 :|
A | Adfd Adfd | g2 gf edcB | Acec Acec |\
f2 fe dcBc |
Adfd Adfd | g2 gf edcB | a2 af gfed | cdec d3 :|
